assets/img/guide_four.svg

<svg width="496" height="255" fill="none" xmlns="http://www.w3.org/2000/svg"><path d="M443.872 93.974l-45.355 18.055 40.141-25.246c-6.524-8.565-13.853-16.677-21.917-24.258l-196.698 41.122L397.717 46.64a226.922 226.922 0 00-25.801-16.54L72.195 70.705C40.372 104.176 23.025 145.753 23 188.61h451.162c-.018-33.237-10.467-65.882-30.29-94.635zm-97.987-74.881C315.144 6.49 281.383-.04 247.181 0 177.571 0 115.337 26.532 74 68.22c70.785-13.038 194.027-35.605 271.885-49.127z" fill="#D7F2AA"/><ellipse rx="244.862" ry="60.77" transform="rotate(3.049 -3281.352 4741.802) skewX(.123)" fill="#B6CD91"/><path d="M363.699 241.549l-.698-.013a162.323 162.323 0 012.48-23.179c3.022-16.393 8.046-27.159 14.934-32l.401.573c-16.09 11.306-17.109 54.187-17.117 54.619zm8.734-.166l-.698-.014c.015-.774.451-19.027 7.631-24.072l.402.572c-6.891 4.842-7.331 23.328-7.335 23.514z" fill="#666"/><path d="M384.791 186.994a3.496 3.496 0 01-3.494-3.497 3.496 3.496 0 013.494-3.497 3.496 3.496 0 013.494 3.497 3.496 3.496 0 01-3.494 3.497zm-1.73 30.072a3.496 3.496 0 01-3.494-3.497 3.496 3.496 0 013.494-3.497 3.496 3.496 0 013.494 3.497 3.496 3.496 0 01-3.494 3.497z" fill="#FDFF8C"/><path d="M370.805 189.09c.657 4.197-1.055 7.951-1.055 7.951s-2.776-3.051-3.432-7.248c-.657-4.198 1.054-7.952 1.054-7.952s2.776 3.051 3.433 7.249zm11.421 10.194c-4.016 1.378-8.008.346-8.008.346s2.519-3.268 6.534-4.646c4.016-1.379 8.008-.346 8.008-.346s-2.519 3.267-6.534 4.646zm.128 26.632a10.867 10.867 0 01-5.613.242 9.909 9.909 0 0110.193-3.499 10.882 10.882 0 01-4.58 3.257zM124.06 195.549l.699-.013a162.323 162.323 0 00-2.48-23.179c-3.022-16.393-8.047-27.159-14.934-32l-.402.573c16.09 11.306 17.109 54.187 17.117 54.619zm-8.734-.166l.699-.014c-.015-.774-.452-19.027-7.632-24.072l-.401.572c6.89 4.842 7.331 23.328 7.334 23.514z" fill="#666"/><path d="M102.969 140.994a3.495 3.495 0 003.493-3.497 3.495 3.495 0 00-3.493-3.497 3.496 3.496 0 00-3.494 3.497 3.496 3.496 0 003.494 3.497zm1.73 30.072a3.496 3.496 0 003.494-3.497 3.496 3.496 0 00-3.494-3.497 3.496 3.496 0 00-3.494 3.497 3.496 3.496 0 003.494 3.497z" fill="#FDFF8C"/><path d="M116.955 143.09c-.657 4.197 1.054 7.951 1.054 7.951s2.777-3.051 3.433-7.248c.657-4.198-1.055-7.952-1.055-7.952s-2.776 3.051-3.432 7.249zm-11.421 10.194c4.015 1.378 8.008.346 8.008.346s-2.519-3.268-6.534-4.646c-4.016-1.379-8.008-.346-8.008-.346s2.518 3.267 6.534 4.646zm-.128 26.632c1.817.571 3.753.655 5.613.242a9.91 9.91 0 00-10.193-3.499 10.882 10.882 0 004.58 3.257z" fill="#666"/><path d="M165 97.57c0-5.027 3.112-9.49 7.779-10.906 15.919-4.826 27.592-4.943 43.844-.005 4.649 1.412 7.742 5.863 7.742 10.877v82.885c0 4.919-2.972 9.302-7.492 10.753-15.731 5.049-27.439 4.854-44.009-.135-4.712-1.419-7.864-5.905-7.864-10.961V97.569z" fill="url(#paint0_linear)" stroke="#666" stroke-width="4"/><circle cx="194.773" cy="138.773" r="16.773" fill="#ABCC75" stroke="#666" stroke-width="2"/><path fill="#fff" stroke="#000" stroke-width=".022" d="M196.044 129.91h4.79v.459h-4.79z"/><path fill="#fff" stroke="#000" stroke-width=".022" d="M196.044 129.91h4.79v.459h-4.79zm-6.111 12.214v-5.957h.547v5.957z"/><path fill-rule="evenodd" clip-rule="evenodd" d="M194.294 142.141l-3.789-5.042v5.064h-.583v-6.008h.583v.002l.003-.002 3.789 5.043v-5.043h.568v5.994h-.568v-.011l-.003.003z" fill="#fff"/><path fill-rule="evenodd" clip-rule="evenodd" d="M190.491 137.055l3.805 5.065.015-.011v.025h.54v-5.964h-.54v5.072l-3.806-5.066-.014.01v-.016h-.555v5.979h.555v-5.094zm.014 5.108h-.583v-6.008h.583v.002l.003-.002 3.789 5.043v-5.043h.568v5.994h-.568v-.011l-.003.003-3.789-5.042v5.064z" fill="#fff"/><path fill="#fff" stroke="#000" stroke-width=".022" d="M194.833 136.771v-5.957h.547v5.957z"/><path fill-rule="evenodd" clip-rule="evenodd" d="M191.711 144.766l-.639 1.77-1.813-5.014h-.605l.368 1.016h.001l1.804 4.978h.496l.051-.142v-.001l1.123-3.106.435 1.204.753 2.045h.486l.053-.145 2.114-5.849h-.605l-1.812 5.012-1.019-2.818-.396-1.091-.795 2.141zm-1.642-7.983h-.598v-5.979h.714v.002l.003-.002 2.256 3.259 2.257-3.259.005.004v-.004h.714v5.979h-.597v-5.155l-2.221 3.206-.135-.093-.166.115-2.232-3.225v5.152z" fill="#fff"/><path d="M192.438 135.062l-.612-.919h1.225l-.613.919z" fill="#fff"/><path fill-rule="evenodd" clip-rule="evenodd" d="M196.533 136.782l.576-1.589h2.655l.575 1.589h.637l-2.165-5.981-.022.008v-.006h-.721l-.006-.002-.001.002h-.001v.003l-2.164 5.976h.637zm3.02-2.173h-2.233l1.116-3.084 1.117 3.084z" fill="#fff"/><path fill-rule="evenodd" clip-rule="evenodd" d="M196.533 142.166l.576-1.59h2.655l.575 1.59h.637l-2.165-5.981-.022.008v-.006h-.721l-.006-.002-.001.002h-.002v.003l-2.163 5.976h.637zm1.903-5.258l1.117 3.085h-2.233l1.116-3.085z" fill="#fff"/><path fill-rule="evenodd" clip-rule="evenodd" d="M196.533 147.518l.576-1.59h2.655l.576 1.59h.636l-2.165-5.982-.022.008v-.005h-.72l-.007-.003-.001.003h-.001v.003l-2.164 5.976h.637zm1.903-5.258l1.117 3.085h-2.233l1.116-3.085z" fill="#fff"/><circle cx="177.217" cy="176.264" r="1.314" fill="#ABCC75" stroke="#666" stroke-width=".464"/><circle cx="185.874" cy="177.809" r="1.314" fill="#ABCC75" stroke="#666" stroke-width=".464"/><circle cx="194.528" cy="178.737" r="1.314" fill="#ABCC75" stroke="#666" stroke-width=".464"/><circle cx="203.182" cy="177.809" r="1.314" fill="#ABCC75" stroke="#666" stroke-width=".464"/><circle cx="211.837" cy="176.264" r="1.314" fill="#ABCC75" stroke="#666" stroke-width=".464"/><circle cx="177.217" cy="185.537" r="1.314" fill="#ABCC75" stroke="#666" stroke-width=".464"/><circle cx="171.036" cy="181.828" r="1.314" fill="#ABCC75" stroke="#666" stroke-width=".464"/><circle cx="185.872" cy="187.083" r="1.314" fill="#ABCC75" stroke="#666" stroke-width=".464"/><circle cx="194.526" cy="188.009" r="1.314" fill="#ABCC75" stroke="#666" stroke-width=".464"/><circle cx="203.18" cy="187.083" r="1.314" fill="#ABCC75" stroke="#666" stroke-width=".464"/><circle cx="211.837" cy="185.537" r="1.314" fill="#ABCC75" stroke="#666" stroke-width=".464"/><circle cx="218.018" cy="181.828" r="1.314" fill="#ABCC75" stroke="#666" stroke-width=".464"/><path d="M269 94.33c0-3.886 2.42-7.39 6.113-8.604 18.914-6.214 31.831-6.386 51.163-.006 3.681 1.214 6.089 4.713 6.089 8.589v89.262c0 3.799-2.313 7.249-5.898 8.505-18.691 6.548-31.647 6.27-51.291-.095-3.722-1.207-6.176-4.726-6.176-8.639V94.331z" fill="url(#paint1_linear)" stroke="#666" stroke-width="4"/><circle cx="283.5" cy="179.5" r="6.5" fill="#ABCC75"/><path d="M292.783 189.982l.001-.001v-2.022c0-.472.134-.898.406-1.207.269-.307.677-.496 1.221-.496 1.088 0 1.74.756 1.74 1.703v9.418c0 .85-.143 1.641-.33 2.316-.518 1.885-.804 3.18-.885 4.908a11.7 11.7 0 00.069 1.917l.003.016c.062.553-.226 1.097-.768 1.392-.878.484-2.507 1.074-5.205 1.074-2.857 0-4.406-.721-5.162-1.26-.396-.282-.627-.703-.627-1.148v-.009c-.064-.827-.126-1.21-.253-1.625-.44-1.465-.297-1.491-1.585-3.258-.966-1.324-1.359-4.197-2.088-5.466a.815.815 0 00-.084-.118l-3.78-4.438c-.57-.689-.747-1.645.311-2.52.981-.812 1.928-.208 2.375.17l2.79 2.664c.587.56 1.559.145 1.559-.666v-11.609c0-.473.193-.901.502-1.215a1.713 1.713 0 012.926 1.155v10.324l.002.001.001-.001-.003-4.255a1.714 1.714 0 013.429 0l.003 4.256v-3.186a1.714 1.714 0 113.431.002v3.183l.001.001z" fill="url(#paint2_linear)"/><path d="M307.5 205a1 1 0 00-2 0h2zM190 205v2.625h2V205h-2zm0 7.875v2.625h2v-2.625h-2zm0 2.625c0 .947.189 1.853.532 2.68l1.847-.766A4.98 4.98 0 01192 215.5h-2zm4.32 6.468a6.982 6.982 0 002.68.532v-2a4.98 4.98 0 01-1.914-.379l-.766 1.847zm2.68.532h2.875v-2H197v2zm8.625 0h5.75v-2h-5.75v2zm11.5 0h5.75v-2h-5.75v2zm11.5 0h5.75v-2h-5.75v2zm11.5 0h5.75v-2h-5.75v2zm11.5 0h5.75v-2h-5.75v2zm11.5 0h5.75v-2h-5.75v2zm11.5 0h5.75v-2h-5.75v2zm11.5 0h5.75v-2h-5.75v2zm11.5 0h2.875v-2h-2.875v2zm2.875 0c.947 0 1.853-.189 2.68-.532l-.766-1.847a4.98 4.98 0 01-1.914.379v2zm6.468-4.32a6.982 6.982 0 00.532-2.68h-2a4.98 4.98 0 01-.379 1.914l1.847.766zm.532-2.68v-2.625h-2v2.625h2zm0-7.875V205h-2v2.625h2zm.414-6.211l-.707.707.707-.707zm-7.207 5.793l5.086-5.086-1.414-1.414-5.086 5.086 1.414 1.414zm6.5-5.086l5.086 5.086 1.414-1.414-5.086-5.086-1.414 1.414zm-1.414 0a1 1 0 011.414 0l1.414-1.414a3 3 0 00-4.242 0l1.414 1.414z" fill="#fff"/><defs><linearGradient id="paint0_linear" x1="194.682" y1="81" x2="194.682" y2="196.872" gradientUnits="userSpaceOnUse"><stop stop-color="#fff"/><stop offset="1" stop-color="#E0E1E2"/></linearGradient><linearGradient id="paint1_linear" x1="300.682" y1="81" x2="300.682" y2="196.872" gradientUnits="userSpaceOnUse"><stop stop-color="#fff"/><stop offset="1" stop-color="#E0E1E2"/></linearGradient><linearGradient id="paint2_linear" x1="283.908" y1="177.959" x2="290.014" y2="209.643" gradientUnits="userSpaceOnUse"><stop stop-color="#FDDAC5"/><stop offset="1" stop-color="#FBBC95"/></linearGradient></defs></svg>

<svg width="496" height="255" viewBox="0 0 496 255" fill="none" xmlns="http://www.w3.org/2000/svg">
<path d="M443.872 93.9741L398.517 112.029L438.658 86.783C432.134 78.218 424.805 70.1062 416.741 62.5254L220.043 103.647L397.717 46.6404C389.598 40.6151 380.976 35.0874 371.916 30.0996L72.1949 70.7054C40.3721 104.176 23.0245 145.753 23 188.609H474.162C474.144 155.372 463.695 122.727 443.872 93.9741Z" fill="#D7F2AA"/>
<path d="M345.885 19.0931C315.144 6.49006 281.383 -0.0405193 247.181 0.000189153C177.571 0.000189153 115.337 26.5322 74 68.2194C144.785 55.1824 268.027 32.6145 345.885 19.0931Z" fill="#D7F2AA"/>
<ellipse rx="244.862" ry="60.7702" transform="matrix(0.998584 0.0531999 -0.0510546 0.998696 247.617 181.282)" fill="#B6CD91"/>
<path d="M363.699 241.549L363.001 241.536C363.271 233.76 364.1 226.014 365.481 218.357C368.503 201.964 373.527 191.198 380.415 186.357L380.816 186.93C364.726 198.236 363.707 241.117 363.699 241.549Z" fill="#666666"/>
<path d="M372.433 241.383L371.735 241.369C371.75 240.595 372.186 222.342 379.366 217.297L379.768 217.869C372.877 222.711 372.437 241.197 372.433 241.383Z" fill="#666666"/>
<path d="M384.791 186.994C382.862 186.994 381.297 185.428 381.297 183.497C381.297 181.566 382.862 180 384.791 180C386.721 180 388.285 181.566 388.285 183.497C388.285 185.428 386.721 186.994 384.791 186.994Z" fill="#FDFF8C"/>
<path d="M383.061 217.066C381.131 217.066 379.567 215.5 379.567 213.569C379.567 211.638 381.131 210.072 383.061 210.072C384.99 210.072 386.555 211.638 386.555 213.569C386.555 215.5 384.99 217.066 383.061 217.066Z" fill="#FDFF8C"/>
<path d="M370.805 189.09C371.462 193.287 369.75 197.041 369.75 197.041C369.75 197.041 366.974 193.99 366.318 189.793C365.661 185.595 367.372 181.841 367.372 181.841C367.372 181.841 370.148 184.892 370.805 189.09Z" fill="#666666"/>
<path d="M382.226 199.284C378.21 200.662 374.218 199.63 374.218 199.63C374.218 199.63 376.737 196.362 380.752 194.984C384.768 193.605 388.76 194.638 388.76 194.638C388.76 194.638 386.241 197.905 382.226 199.284Z" fill="#666666"/>
<path d="M382.354 225.916C380.536 226.487 378.601 226.571 376.741 226.158C377.922 224.654 379.513 223.523 381.321 222.902C383.129 222.281 385.078 222.197 386.934 222.659C385.718 224.128 384.139 225.25 382.354 225.916Z" fill="#666666"/>
<path d="M124.06 195.549L124.759 195.536C124.489 187.76 123.66 180.014 122.279 172.357C119.257 155.964 114.232 145.198 107.345 140.357L106.943 140.93C123.033 152.236 124.052 195.117 124.06 195.549Z" fill="#666666"/>
<path d="M115.326 195.383L116.025 195.369C116.01 194.595 115.573 176.342 108.393 171.297L107.992 171.869C114.882 176.711 115.323 195.197 115.326 195.383Z" fill="#666666"/>
<path d="M102.969 140.994C104.898 140.994 106.462 139.428 106.462 137.497C106.462 135.566 104.898 134 102.969 134C101.039 134 99.4746 135.566 99.4746 137.497C99.4746 139.428 101.039 140.994 102.969 140.994Z" fill="#FDFF8C"/>
<path d="M104.699 171.066C106.629 171.066 108.193 169.5 108.193 167.569C108.193 165.638 106.629 164.072 104.699 164.072C102.769 164.072 101.205 165.638 101.205 167.569C101.205 169.5 102.769 171.066 104.699 171.066Z" fill="#FDFF8C"/>
<path d="M116.955 143.09C116.298 147.287 118.009 151.041 118.009 151.041C118.009 151.041 120.786 147.99 121.442 143.793C122.099 139.595 120.387 135.841 120.387 135.841C120.387 135.841 117.611 138.892 116.955 143.09Z" fill="#666666"/>
<path d="M105.534 153.284C109.549 154.662 113.542 153.63 113.542 153.63C113.542 153.63 111.023 150.362 107.008 148.984C102.992 147.605 99 148.638 99 148.638C99 148.638 101.518 151.905 105.534 153.284Z" fill="#666666"/>
<path d="M105.406 179.916C107.223 180.487 109.159 180.571 111.019 180.158C109.838 178.654 108.247 177.523 106.439 176.902C104.63 176.281 102.681 176.197 100.826 176.659C102.042 178.128 103.621 179.25 105.406 179.916Z" fill="#666666"/>
<path d="M165 97.5691C165 92.5426 168.112 88.0793 172.779 86.6642C188.698 81.8384 200.371 81.721 216.623 86.6588C221.272 88.0713 224.365 92.5222 224.365 97.5361V180.421C224.365 185.34 221.393 189.723 216.873 191.174C201.142 196.223 189.434 196.028 172.864 191.039C168.152 189.62 165 185.134 165 180.078V97.5691Z" fill="url(#paint0_linear)" stroke="#666666" stroke-width="4"/>
<circle cx="194.773" cy="138.773" r="16.7731" fill="#ABCC75" stroke="#666666" stroke-width="2"/>
<rect x="196.044" y="129.91" width="4.79044" height="0.45935" fill="white" stroke="black" stroke-width="0.0218823"/>
<rect x="196.044" y="129.91" width="4.79044" height="0.45935" fill="white" stroke="black" stroke-width="0.0218823"/>
<rect x="189.933" y="142.124" width="5.95707" height="0.546847" transform="rotate(-90 189.933 142.124)" fill="white" stroke="black" stroke-width="0.0218823"/>
<path fill-rule="evenodd" clip-rule="evenodd" d="M194.294 142.141L190.505 137.099V142.163H189.922V136.155H190.505V136.157L190.508 136.155L194.297 141.198V136.155H194.865V142.149H194.297V142.138L194.294 142.141Z" fill="white"/>
<path fill-rule="evenodd" clip-rule="evenodd" d="M190.491 137.055L194.296 142.12L194.311 142.109V142.134H194.851V136.17H194.311V141.242L190.505 136.176L190.491 136.186V136.17H189.936V142.149H190.491V137.055ZM190.505 142.163H189.922V136.155H190.505V136.157L190.508 136.155L194.297 141.198V136.155H194.865V142.149H194.297V142.138L194.294 142.141L190.505 137.099V142.163Z" fill="white"/>
<rect x="194.833" y="136.771" width="5.95707" height="0.546847" transform="rotate(-90 194.833 136.771)" fill="white" stroke="black" stroke-width="0.0218823"/>
<path fill-rule="evenodd" clip-rule="evenodd" d="M191.711 144.766L191.072 146.536L189.259 141.522H188.654L189.022 142.538L189.023 142.538L190.827 147.516H191.323L191.374 147.374L191.374 147.373L192.497 144.267L192.932 145.471L193.685 147.516H194.171L194.224 147.371L194.224 147.371L196.338 141.522H195.733L193.921 146.534L192.902 143.716L192.506 142.625L191.711 144.766Z" fill="white"/>
<path fill-rule="evenodd" clip-rule="evenodd" d="M190.069 136.783H189.471V130.804H189.529H190.069H190.185V130.806L190.188 130.804L192.444 134.063L194.701 130.804L194.706 130.808V130.804H194.823H195.377H195.42V136.783H194.823V131.628L192.602 134.834L192.467 134.741L192.301 134.856L190.069 131.631V136.783Z" fill="white"/>
<path d="M192.438 135.062L191.826 134.143L193.051 134.143L192.438 135.062Z" fill="white"/>
<path fill-rule="evenodd" clip-rule="evenodd" d="M196.533 136.782L197.109 135.193H199.764L200.339 136.782H200.976L198.811 130.801L198.789 130.809V130.803H198.068L198.062 130.801L198.061 130.803H198.06V130.806L195.896 136.782H196.533ZM199.553 134.609H197.32L198.436 131.525L199.553 134.609Z" fill="white"/>
<path fill-rule="evenodd" clip-rule="evenodd" d="M196.533 142.166L197.109 140.576H199.764L200.339 142.166H200.976L198.811 136.185L198.789 136.193V136.187H198.068L198.062 136.185L198.061 136.187H198.059V136.19L195.896 142.166H196.533ZM198.436 136.908L199.553 139.993H197.32L198.436 136.908Z" fill="white"/>
<path fill-rule="evenodd" clip-rule="evenodd" d="M196.533 147.518L197.109 145.928H199.764L200.34 147.518H200.976L198.811 141.536L198.789 141.544V141.539H198.069L198.062 141.536L198.061 141.539H198.06V141.542L195.896 147.518H196.533ZM198.436 142.26L199.553 145.345H197.32L198.436 142.26Z" fill="white"/>
<circle cx="177.217" cy="176.264" r="1.31358" fill="#ABCC75" stroke="#666666" stroke-width="0.463817"/>
<circle cx="185.874" cy="177.809" r="1.31358" fill="#ABCC75" stroke="#666666" stroke-width="0.463817"/>
<circle cx="194.528" cy="178.737" r="1.31358" fill="#ABCC75" stroke="#666666" stroke-width="0.463817"/>
<circle cx="203.182" cy="177.809" r="1.31358" fill="#ABCC75" stroke="#666666" stroke-width="0.463817"/>
<circle cx="211.837" cy="176.264" r="1.31358" fill="#ABCC75" stroke="#666666" stroke-width="0.463817"/>
<circle cx="177.217" cy="185.537" r="1.31358" fill="#ABCC75" stroke="#666666" stroke-width="0.463817"/>
<circle cx="171.036" cy="181.828" r="1.31358" fill="#ABCC75" stroke="#666666" stroke-width="0.463817"/>
<circle cx="185.872" cy="187.083" r="1.31358" fill="#ABCC75" stroke="#666666" stroke-width="0.463817"/>
<circle cx="194.526" cy="188.009" r="1.31358" fill="#ABCC75" stroke="#666666" stroke-width="0.463817"/>
<circle cx="203.18" cy="187.083" r="1.31358" fill="#ABCC75" stroke="#666666" stroke-width="0.463817"/>
<circle cx="211.837" cy="185.537" r="1.31358" fill="#ABCC75" stroke="#666666" stroke-width="0.463817"/>
<circle cx="218.018" cy="181.828" r="1.31358" fill="#ABCC75" stroke="#666666" stroke-width="0.463817"/>
<path d="M269 94.3309C269 90.4443 271.42 86.9395 275.113 85.7263C294.027 79.5117 306.944 79.3402 326.276 85.7197C329.957 86.9342 332.365 90.4332 332.365 94.309V183.571C332.365 187.37 330.052 190.82 326.467 192.076C307.776 198.624 294.82 198.346 275.176 191.981C271.454 190.774 269 187.255 269 183.342V94.3309Z" fill="url(#paint1_linear)" stroke="#666666" stroke-width="4"/>
<circle cx="283.5" cy="179.5" r="6.5" fill="#ABCC75"/>
<path d="M292.783 189.982C292.784 189.982 292.784 189.982 292.784 189.981V187.959C292.784 187.487 292.918 187.061 293.19 186.752C293.459 186.445 293.867 186.256 294.411 186.256C295.499 186.256 296.151 187.012 296.151 187.959V197.377C296.151 198.227 296.008 199.018 295.821 199.693C295.303 201.578 295.017 202.873 294.936 204.601C294.904 205.239 294.932 205.882 295.005 206.518L295.008 206.534C295.07 207.087 294.782 207.631 294.24 207.926C293.362 208.41 291.733 209 289.035 209C286.178 209 284.629 208.279 283.873 207.74C283.477 207.458 283.246 207.037 283.246 206.592V206.583C283.182 205.756 283.12 205.373 282.993 204.958C282.553 203.493 282.696 203.467 281.408 201.7C280.442 200.376 280.049 197.503 279.32 196.234C279.296 196.192 279.267 196.153 279.236 196.116L275.456 191.678C274.886 190.989 274.709 190.033 275.767 189.158C276.748 188.346 277.695 188.95 278.142 189.328L280.932 191.992C281.519 192.552 282.491 192.137 282.491 191.326V179.717C282.491 179.244 282.684 178.816 282.993 178.502C283.304 178.194 283.733 178 284.207 178C285.134 178 285.89 178.737 285.919 179.657V189.981C285.919 189.982 285.92 189.982 285.921 189.982C285.921 189.982 285.922 189.982 285.922 189.981L285.919 185.726C285.919 184.779 286.687 184.012 287.634 184.012C288.581 184.012 289.348 184.779 289.348 185.726L289.351 189.982V186.796C289.351 185.849 290.118 185.081 291.065 185.081C291.537 185.081 291.966 185.275 292.279 185.584C292.588 185.895 292.782 186.323 292.782 186.798V187.959V189.981C292.782 189.982 292.782 189.982 292.783 189.982Z" fill="url(#paint2_linear)"/>
<path d="M307.5 205C307.5 204.448 307.052 204 306.5 204C305.948 204 305.5 204.448 305.5 205H307.5ZM190 205V207.625H192V205H190ZM190 212.875V215.5H192V212.875H190ZM190 215.5C190 216.447 190.189 217.353 190.532 218.18L192.379 217.414C192.135 216.826 192 216.18 192 215.5H190ZM194.32 221.968C195.147 222.311 196.053 222.5 197 222.5V220.5C196.32 220.5 195.674 220.365 195.086 220.121L194.32 221.968ZM197 222.5H199.875V220.5H197V222.5ZM205.625 222.5H211.375V220.5H205.625V222.5ZM217.125 222.5H222.875V220.5H217.125V222.5ZM228.625 222.5H234.375V220.5H228.625V222.5ZM240.125 222.5H245.875V220.5H240.125V222.5ZM251.625 222.5H257.375V220.5H251.625V222.5ZM263.125 222.5H268.875V220.5H263.125V222.5ZM274.625 222.5H280.375V220.5H274.625V222.5ZM286.125 222.5H291.875V220.5H286.125V222.5ZM297.625 222.5H300.5V220.5H297.625V222.5ZM300.5 222.5C301.447 222.5 302.353 222.311 303.18 221.968L302.414 220.121C301.826 220.365 301.18 220.5 300.5 220.5V222.5ZM306.968 218.18C307.311 217.353 307.5 216.447 307.5 215.5H305.5C305.5 216.18 305.365 216.826 305.121 217.414L306.968 218.18ZM307.5 215.5V212.875H305.5V215.5H307.5ZM307.5 207.625V205H305.5V207.625H307.5Z" fill="white"/>
<path d="M307.914 201.414L307.207 202.121L307.914 201.414ZM300.707 207.207L305.793 202.121L304.379 200.707L299.293 205.793L300.707 207.207ZM307.207 202.121L312.293 207.207L313.707 205.793L308.621 200.707L307.207 202.121ZM305.793 202.121C306.183 201.731 306.817 201.731 307.207 202.121L308.621 200.707C307.45 199.536 305.55 199.536 304.379 200.707L305.793 202.121Z" fill="white"/>
<defs>
<linearGradient id="paint0_linear" x1="194.682" y1="81" x2="194.682" y2="196.872" gradientUnits="userSpaceOnUse">
<stop stop-color="white"/>
<stop offset="1" stop-color="#E0E1E2"/>
</linearGradient>
<linearGradient id="paint1_linear" x1="300.682" y1="81" x2="300.682" y2="196.872" gradientUnits="userSpaceOnUse">
<stop stop-color="white"/>
<stop offset="1" stop-color="#E0E1E2"/>
</linearGradient>
<linearGradient id="paint2_linear" x1="283.908" y1="177.959" x2="290.014" y2="209.643" gradientUnits="userSpaceOnUse">
<stop stop-color="#FDDAC5"/>
<stop offset="1" stop-color="#FBBC95"/>
</linearGradient>
</defs>
</svg>
